X: 2
T: Deirdre's Fancy
R: slip jig
M: 9/8
L: 1/8
K: Emin
|: "Em"E2F G2A BGE | "D"D2E F2G AFD | "Em"E2F G2A BGE | "B"B=cB AGF "Em"E3 :|
|: "Em"eBe e2f gfe | "D"dAd d2e fed | "Em"eBe e2f gfe | "D"d=cB AGF "Em"E3 :|


Tune 1538	Setting 1538

